src/assets/images/bene12.svg

<svg width="49" height="49" viewBox="0 0 49 49" fill="none" xmlns="http://www.w3.org/2000/svg">
<circle cx="24.025" cy="24.0992" r="24.0074" fill="url(#paint0_linear_674_8)"/>
<g style="mix-blend-mode:multiply">
<path opacity="0.05" d="M38.1635 35.329C38.1635 36.873 25.8589 37.35 17.6559 36.8385C12.7573 36.5247 11.1035 35.897 11.1035 35.329C11.1035 34.761 12.773 34.124 17.6559 33.8196C25.8589 33.305 38.1635 33.7851 38.1635 35.329Z" fill="#FCFCFC"/>
<path opacity="0.1" d="M37.6298 35.33C37.6298 36.8017 25.8744 37.263 17.9977 36.7735C13.2623 36.4785 11.6211 35.8791 11.6211 35.33C11.6211 34.7808 13.2623 34.172 17.9977 33.8833C25.8744 33.3937 37.6298 33.855 37.6298 35.33Z" fill="#FAFAFA"/>
<path opacity="0.14" d="M37.1161 35.3286C37.1161 36.7313 25.9099 37.1707 18.3627 36.7094C13.7873 36.4363 12.1523 35.8495 12.1523 35.3286C12.1523 34.8077 13.7779 34.2177 18.3533 33.9447C25.9099 33.4834 37.1161 33.9227 37.1161 35.3286Z" fill="#F7F7F7"/>
<path opacity="0.19" d="M36.5886 35.3281C36.5886 36.6587 25.919 37.0823 18.7013 36.6461C14.2923 36.3888 12.6855 35.849 12.6855 35.3281C12.6855 34.8072 14.2923 34.28 18.7076 34.0069C25.9284 33.5708 36.5886 33.9944 36.5886 35.3281Z" fill="#F4F5F5"/>
<path opacity="0.24" d="M36.051 35.3265C36.051 36.5817 25.9368 36.9928 19.0455 36.5817C14.7934 36.337 13.1992 35.8097 13.1992 35.3265C13.1992 34.8432 14.7934 34.3129 19.0455 34.0712C25.9463 33.6507 36.051 34.0618 36.051 35.3265Z" fill="#F2F2F2"/>
<path opacity="0.29" d="M35.5356 35.3214C35.5356 36.5108 25.9707 36.8905 19.4057 36.5139C15.3262 36.2848 13.7383 35.7827 13.7383 35.3214C13.7383 34.8601 15.3073 34.3549 19.4057 34.1258C25.9581 33.743 35.5356 34.1289 35.5356 35.3214Z" fill="#EFEFF0"/>
<path opacity="0.38" d="M34.4839 35.3261C34.4839 36.3774 26.011 36.7257 20.1019 36.3931C16.3362 36.1954 14.7891 35.7435 14.7891 35.3261C14.7891 34.9087 16.3362 34.4569 20.1019 34.2592C26.0141 33.9234 34.4839 34.278 34.4839 35.3261Z" fill="#E9EAEB"/>
<path opacity="0.43" d="M33.9568 35.3243C33.9568 36.3034 26.0362 36.6235 20.4629 36.3285C16.8572 36.1371 15.3164 35.7197 15.3164 35.3243C15.3164 34.9289 16.8478 34.5021 20.4504 34.3201C26.0362 34.0126 33.9568 34.3421 33.9568 35.3243Z" fill="#E7E7E8"/>
<path opacity="0.48" d="M33.4251 35.325C33.4251 36.235 26.0505 36.5332 20.7942 36.2664C17.3422 36.0907 15.8359 35.7016 15.8359 35.325C15.8359 34.9484 17.3516 34.5499 20.7942 34.3835C26.0505 34.1011 33.4251 34.4149 33.4251 35.325Z" fill="#E4E5E6"/>
</g>
<path d="M25.905 14.3256C25.905 13.9926 25.7728 13.6734 25.5374 13.438C25.302 13.2026 24.9827 13.0703 24.6498 13.0703C24.3169 13.0703 23.9976 13.2026 23.7622 13.438C23.5268 13.6734 23.3945 13.9926 23.3945 14.3256V19.3465H25.905V14.3256Z" fill="white"/>
<path d="M24.6306 34.3687C23.6082 34.3687 22.6118 34.0464 21.7832 33.4475C20.9546 32.8487 20.3358 32.0038 20.015 31.033C19.6942 30.0623 19.6877 29.0151 19.9963 28.0404C20.3049 27.0657 20.913 26.2131 21.7341 25.604V14.2754C21.7688 13.5313 22.0887 12.8292 22.6275 12.3149C23.1664 11.8006 23.8826 11.5137 24.6274 11.5137C25.3723 11.5137 26.0885 11.8006 26.6273 12.3149C27.1662 12.8292 27.4861 13.5313 27.5208 14.2754V25.604C28.3419 26.2131 28.95 27.0657 29.2586 28.0404C29.5672 29.0151 29.5607 30.0623 29.2399 31.033C28.9191 32.0038 28.3003 32.8487 27.4717 33.4475C26.6431 34.0464 25.6467 34.3687 24.6243 34.3687H24.6306ZM24.6306 33.5528C25.5158 33.5535 26.3769 33.2637 27.0816 32.728C27.7863 32.1923 28.2959 31.4401 28.532 30.587C28.7682 29.7338 28.718 28.8267 28.3891 28.0048C28.0602 27.183 27.4707 26.4917 26.7112 26.037V14.2754C26.7112 13.7236 26.492 13.1944 26.1018 12.8042C25.7116 12.414 25.1824 12.1948 24.6306 12.1948C24.0788 12.1948 23.5496 12.414 23.1594 12.8042C22.7692 13.1944 22.55 13.7236 22.55 14.2754V26.037C21.7904 26.4917 21.201 27.183 20.8721 28.0048C20.5432 28.8267 20.4929 29.7338 20.7291 30.587C20.9653 31.4401 21.4748 32.1923 22.1796 32.728C22.8843 33.2637 23.7453 33.5535 24.6306 33.5528Z" fill="white"/>
<path d="M25.8984 26.5376V19.3545H23.3879V26.5376C22.7013 26.8273 22.136 27.3456 21.7879 28.0046C21.4398 28.6636 21.3304 29.4227 21.4782 30.1531C21.626 30.8836 22.0219 31.5405 22.5987 32.0123C23.1756 32.4841 23.8979 32.7419 24.6432 32.7419C25.3884 32.7419 26.1108 32.4841 26.6876 32.0123C27.2645 31.5405 27.6604 30.8836 27.8082 30.1531C27.956 29.4227 27.8465 28.6636 27.4985 28.0046C27.1504 27.3456 26.5851 26.8273 25.8984 26.5376Z" fill="#F1F1F1" fill-opacity="0.94"/>
<path d="M23.6925 29.2646C23.6925 29.8577 23.3787 30.3379 22.9582 30.3379C22.5377 30.3379 22.2207 29.8672 22.2207 29.2646C22.2207 28.6621 22.5345 28.1914 22.9582 28.1914C23.3818 28.1914 23.6925 28.681 23.6925 29.2646Z" fill="white"/>
<path d="M26.7061 24.2285H24.8672V24.7902H26.7061V24.2285Z" fill="white"/>
<path d="M26.7185 22.5986H25.9277V23.1604H26.7185V22.5986Z" fill="white"/>
<path d="M26.7061 20.9766H24.8672V21.5383H26.7061V20.9766Z" fill="white"/>
<path d="M26.7185 19.3545H25.9277V19.9162H26.7185V19.3545Z" fill="white"/>
<path d="M26.7061 17.7314H24.8672V18.2932H26.7061V17.7314Z" fill="white"/>
<path d="M26.7185 16.1084H25.9277V16.6701H26.7185V16.1084Z" fill="white"/>
<path d="M26.7061 14.4795H24.8672V15.0412H26.7061V14.4795Z" fill="white"/>
<path d="M24.1412 14.6651C24.1388 14.6251 24.1212 14.5876 24.092 14.5602C24.0628 14.5327 24.0243 14.5175 23.9843 14.5176C23.9439 14.5175 23.905 14.5326 23.8753 14.5599C23.8456 14.5873 23.8274 14.6248 23.8242 14.6651V26.4393L24.138 26.3734V14.6651H24.1412Z" fill="white"/>
<defs>
<linearGradient id="paint0_linear_674_8" x1="24.025" y1="0.0917969" x2="24.025" y2="48.1067" gradientUnits="userSpaceOnUse">
<stop stop-color="#F4815A"/>
<stop offset="1" stop-color="#F25E53"/>
</linearGradient>
</defs>
</svg>

<svg xmlns="http://www.w3.org/2000/svg" width="49" height="49" fill="none"><circle cx="24.025" cy="24.099" r="24.007" fill="url(#a)"/><g style="mix-blend-mode:multiply"><path fill="#FCFCFC" d="M38.164 35.329c0 1.544-12.305 2.021-20.508 1.51-4.899-.314-6.552-.942-6.552-1.51s1.669-1.205 6.552-1.51c8.203-.514 20.508-.034 20.508 1.51" opacity=".05"/><path fill="#FAFAFA" d="M37.63 35.33c0 1.472-11.756 1.933-19.632 1.444-4.736-.296-6.377-.895-6.377-1.444 0-.55 1.641-1.158 6.377-1.447 7.876-.49 19.632-.028 19.632 1.447" opacity=".1"/><path fill="#F7F7F7" d="M37.116 35.329c0 1.402-11.206 1.842-18.753 1.38-4.576-.273-6.21-.86-6.21-1.38 0-.521 1.625-1.111 6.2-1.384 7.557-.462 18.763-.022 18.763 1.384" opacity=".14"/><path fill="#F4F5F5" d="M36.589 35.328c0 1.33-10.67 1.754-17.888 1.318-4.409-.257-6.016-.797-6.016-1.318 0-.52 1.607-1.048 6.023-1.321 7.22-.436 17.88-.013 17.88 1.321" opacity=".19"/><path fill="#F2F2F2" d="M36.051 35.327c0 1.255-10.114 1.666-17.005 1.255-4.253-.245-5.847-.772-5.847-1.255 0-.484 1.594-1.014 5.847-1.256 6.9-.42 17.005-.01 17.005 1.256" opacity=".24"/><path fill="#EFEFF0" d="M35.536 35.321c0 1.19-9.565 1.57-16.13 1.193-4.08-.23-5.668-.731-5.668-1.193 0-.46 1.57-.966 5.668-1.195 6.552-.383 16.13.003 16.13 1.195" opacity=".29"/><path fill="#E9EAEB" d="M34.484 35.326c0 1.051-8.473 1.4-14.382 1.067-3.766-.198-5.313-.65-5.313-1.067s1.547-.87 5.313-1.067c5.912-.336 14.382.019 14.382 1.067" opacity=".38"/><path fill="#E7E7E8" d="M33.957 35.324c0 .98-7.92 1.3-13.494 1.005-3.606-.192-5.147-.61-5.147-1.005s1.532-.822 5.134-1.004c5.586-.307 13.507.022 13.507 1.004" opacity=".43"/><path fill="#E4E5E6" d="M33.425 35.325c0 .91-7.374 1.208-12.63.941-3.453-.175-4.96-.564-4.96-.941s1.517-.775 4.96-.942c5.255-.282 12.63.032 12.63.942" opacity=".48"/></g><path fill="#fff" d="M25.905 14.326a1.255 1.255 0 1 0-2.51 0v5.02h2.51z"/><path fill="#fff" d="M24.63 34.369a4.86 4.86 0 0 1-2.896-8.765V14.275a2.897 2.897 0 0 1 5.787 0v11.329a4.86 4.86 0 0 1-2.897 8.765zm0-.816a4.045 4.045 0 0 0 2.081-7.516V14.275a2.08 2.08 0 0 0-4.161 0v11.762a4.045 4.045 0 0 0 2.08 7.516"/><path fill="#F1F1F1" fill-opacity=".94" d="M25.898 26.538v-7.183h-2.51v7.183a3.23 3.23 0 1 0 2.51 0"/><path fill="#fff" d="M23.693 29.265c0 .593-.314 1.073-.735 1.073-.42 0-.737-.47-.737-1.073s.314-1.074.737-1.074c.424 0 .735.49.735 1.074m3.013-5.036h-1.839v.561h1.84zm.013-1.63h-.791v.561h.79zm-.013-1.622h-1.839v.561h1.84zm.013-1.622h-.791v.561h.79zm-.013-1.624h-1.839v.562h1.84zm.013-1.623h-.791v.562h.79zm-.013-1.628h-1.839v.561h1.84zm-2.565.185a.157.157 0 0 0-.157-.147.16.16 0 0 0-.16.147V26.44l.314-.066V14.665z"/><defs><linearGradient id="a" x1="24.025" x2="24.025" y1=".092" y2="48.107" gradientUnits="userSpaceOnUse"><stop stop-color="#F4815A"/><stop offset="1" stop-color="#F25E53"/></linearGradient></defs></svg>
